X:1
T:[ID 1-33a]
T:[ID 1-33a]
T:Bezeichnung standardisiert: Menuet van de graaf van Saksen; Men\"uet 7. In anderer Quelle: Menuet van de graaf van Saksen (Anm. S. Wascher);  163 - Hs. Bolhuis 1738 (Anm. S. Wascher);
T:Urheber unbekannt Erstbeleg: 1738 (Datum in der schriftlichen Quelle) Datum in der hier transkribierten schriftlichen Quelle: 1776 - 1791
C:Urheber unbekannt
C:Erstbeleg: 1738 (Datum in der schriftlichen Quelle)
C:Datum in der hier transkribierten schriftlichen Quelle: 1776 - 1791
L:1/8
M:3/4
K:G
V:1 treble 
V:1
 G4 Bd |{d} c2 Ac B2 | g2 Td4 |{d} c2 Ac B2 | g2 Td4 | edcBAG | AB c2 B2 |{c} B4 A2 :: d4 fa | %9
{a} g2 eg f2 | a2 c2 cB | Tc4 B2 |"^O)" d2 gdbd |{d} c2 Ac B2 |"^O)" d2 gdbd |{c} c2 Ac B2 | %16
 AcBAGF |{F} G4 G,2 :| %18

